actions/22x22-dark/path-combine.svg

<svg viewBox="0 0 22 22" xmlns="http://www.w3.org/2000/svg"><path d="m13 4.3333333a4.6666667 4.6666667 0 0 0 -4.6666667 4.6666667 4.6666667 4.6666667 0 0 0  .052083.6666667h3.9479167v3.9453123a4.6666667 4.6666667 0 0 0  .666667.054688 4.6666667 4.6666667 0 0 0 4.666667-4.666667 4.6666667 4.6666667 0 0 0 -4.666667-4.6666667zm-.666667 9.2786457a4.6666667 4.6666667 0 0 1 -3.9479163-3.9453123h-4.0520834v8.0000003h7.9999997z" fill="#f2f2f2" fill-opacity=".6"/><path d="m13 3a6 6 0 0 0 -5.9557292 5.3333333h-4.0442708v10.6666667h10.666667v-4.041667a6 6 0 0 0 5.333333-5.958333 6 6 0 0 0 -6-6zm0 1.3333333a4.6666667 4.6666667 0 0 1 4.666667 4.6666667 4.6666667 4.6666667 0 0 1 -4 4.614584v-5.2812507h-5.2786462a4.6666667 4.6666667 0 0 1 4.6119792-4zm-8.6666667 5.3333334h2.7083334a6 6 0 0 0 5.2916663 5.2890623v2.710938h-7.9999997zm4.0520834 0h3.9479163v3.9453123a4.6666667 4.6666667 0 0 1 -3.9479163-3.9453123z" fill="#1d99f3"/></svg>

<svg xmlns="http://www.w3.org/2000/svg" viewBox="0 0 22 22">
  <defs id="defs3051">
    <style type="text/css" id="current-color-scheme">
      .ColorScheme-Text {
        color:#f2f2f2;
      }
      .ColorScheme-Highlight {
        color:#1d99f3;
      }
      </style>
  </defs>
 <path 
     style="fill:currentColor;fill-opacity:0.6;stroke:none" 
     d="M 13,4.3333333 A 4.6666667,4.6666667 0 0 0 8.3333333,9 4.6666667,4.6666667 0 0 0 8.3854163,9.6666667 l 3.9479167,0 0,3.9453123 A 4.6666667,4.6666667 0 0 0 13,13.666667 4.6666667,4.6666667 0 0 0 17.666667,9 4.6666667,4.6666667 0 0 0 13,4.3333333 Z M 12.333333,13.611979 A 4.6666667,4.6666667 0 0 1 8.3854167,9.6666667 l -4.0520834,0 0,8.0000003 7.9999997,0 0,-4.054688 z"
     class="ColorScheme-Text"
     />
 <path 
     style="fill:currentColor;fill-opacity:1;stroke:none" 
     class="ColorScheme-Highlight"
     d="M 13,3 A 6,6 0 0 0 7.0442708,8.3333333 L 3,8.3333333 3,19 l 10.666667,0 0,-4.041667 A 6,6 0 0 0 19,9 6,6 0 0 0 13,3 Z m 0,1.3333333 A 4.6666667,4.6666667 0 0 1 17.666667,9 a 4.6666667,4.6666667 0 0 1 -4,4.614584 l 0,-5.2812507 -5.2786462,0 a 4.6666667,4.6666667 0 0 1 4.6119792,-4 z m -8.6666667,5.3333334 2.7083334,0 a 6,6 0 0 0 5.2916663,5.2890623 l 0,2.710938 -7.9999997,0 0,-8.0000003 z m 4.0520834,0 3.9479163,0 0,3.9453123 A 4.6666667,4.6666667 0 0 1 8.3854167,9.6666667 Z"
     />
</svg>
